X:88
T:Wheatstraw
C:Scott Nygaard
S:Bernie Waugh
R:Reel
M:4/4
L:1/8
K:D
|:\
"Em"EGBd "F#m"cAFD|"G"EGBd "A"ec2D|"Em"EGBd "F#m"cAEF|"G"GBAG "D"FDDD|
"Em"EGBd "F#m"cAFD|"G"EGBd "A"ec2e-|"C"egec dBAB|=cBAG "D"FD3:|
|:\
"E"e3e e2f2-|faeg "D"fd3|"E"e3ee2ef|"G"ged=c BG3|
"E"e3ee2f2-|faeg "D"fdef|"G"gedg edBd|"C"=cBAG "D"FD3:|

